X: 3709
T: Billy The Hook
R: reel
M: 4/4
K: Gdorian
|:DGGA BcdD|CFB,F A,FAF|DGGA Bcdg|
[1 fdcA (3GGG GF|2 fdcA G2 Gc||
|:dgga bgaf|cfBf Afaf|dgga bgaf|
[1 dcBA (3GGG Gc|2 bgaf gefd|efcA (3GGG G2:|

